src/dsmComponents/Icons/expand-12px.svg

<svg width="12" height="12" xmlns="http://www.w3.org/2000/svg" xmlns:xlink="http://www.w3.org/1999/xlink"><defs><path d="M4.5 6.45L5.55 7.5l-3 3h2.7V12H0V6.75h1.5v2.7l3-3zM12 0v5.25h-1.5v-2.7l-3 3L6.45 4.5l3-3h-2.7V0H12z" id="expand-12px_svg__a"/></defs><use fill="#737373" xlink:href="#expand-12px_svg__a" fill-rule="evenodd"/></svg>

<?xml version="1.0" encoding="UTF-8"?>
<svg width="12px" height="12px" viewBox="0 0 12 12" version="1.1" xmlns="http://www.w3.org/2000/svg" xmlns:xlink="http://www.w3.org/1999/xlink">
    <!-- Generator: Sketch 59.1 (86144) - https://sketch.com -->
    <title>expand-12px</title>
    <desc>Created with Sketch.</desc>
    <defs>
        <path d="M4.5,6.45 L5.55,7.5 L2.55,10.5 L5.25,10.5 L5.25,12 L0,12 L0,6.75 L1.5,6.75 L1.5,9.45 L4.5,6.45 Z M12,1.13686838e-13 L12,5.25 L10.5,5.25 L10.5,2.55 L7.5,5.55 L6.45,4.5 L9.45,1.5 L6.75,1.5 L6.75,1.13686838e-13 L12,1.13686838e-13 Z" id="path-1"></path>
    </defs>
    <g id="Final" stroke="none" stroke-width="1" fill="none" fill-rule="evenodd">
        <g id="All-Nucleo-Icons" transform="translate(-174.000000, -3227.000000)">
            <g id="Solo/Nucleo/12px/expand" transform="translate(168.000000, 3221.000000)">
                <g id="fullscreen-double-74" transform="translate(6.000000, 6.000000)">
                    <g id="Colour/Default-Colour">
                        <mask id="mask-2" fill="white">
                            <use xlink:href="#path-1"></use>
                        </mask>
                        <g id="Mask" fill-rule="nonzero"></g>
                        <g id="colour/neutral/chia" mask="url(#mask-2)" fill="#737373">
                            <g transform="translate(-18.000000, -18.000000)" id="Colour">
                                <rect x="0" y="0" width="48" height="48"></rect>
                            </g>
                        </g>
                    </g>
                </g>
            </g>
        </g>
    </g>
</svg>
